apex/img/star.svg

<svg width="17" height="16" viewBox="0 0 17 16" fill="none" xmlns="http://www.w3.org/2000/svg">
<path d="M16.7552 6.14527C16.6513 5.8238 16.3662 5.59547 16.0288 5.56507L11.4466 5.149L9.63468 0.907998C9.50107 0.597187 9.19681 0.395996 8.85874 0.395996C8.52068 0.395996 8.21641 0.597187 8.0828 0.908725L6.27087 5.149L1.68793 5.56507C1.3512 5.5962 1.06679 5.8238 0.96226 6.14527C0.857728 6.46674 0.954265 6.81934 1.20899 7.0416L4.67261 10.0792L3.65127 14.5782C3.57653 14.909 3.70493 15.251 3.9794 15.4494C4.12693 15.556 4.29954 15.6102 4.4736 15.6102C4.62367 15.6102 4.77254 15.5698 4.90614 15.4898L8.85874 13.1275L12.8099 15.4898C13.099 15.6638 13.4635 15.6479 13.7374 15.4494C14.0119 15.2503 14.1402 14.9083 14.0655 14.5782L13.0441 10.0792L16.5078 7.04221C16.7625 6.81934 16.8598 6.46734 16.7552 6.14527Z" fill="#FFC107"/>
</svg>

<svg width="17" height="16" fill="none" xmlns="http://www.w3.org/2000/svg"><path d="M16.755 6.145a.842.842 0 00-.726-.58l-4.582-.416L9.635.908a.844.844 0 00-1.552 0L6.27 5.15l-4.583.416a.844.844 0 00-.479 1.477l3.464 3.037-1.022 4.5a.844.844 0 001.255.91l3.953-2.362 3.95 2.363a.844.844 0 001.256-.912l-1.02-4.499 3.463-3.037a.844.844 0 00.247-.897z" fill="#FFC107"/></svg>
